X: 1
T:Marion And Donald  "#1"
M:C
L:1/8
Q:80
C:Trad.
S:Reel
K:HP
:|2 d|
{gBd}B2{e}G3/2{d}B/2{g}A3/2{d}A/2{e}A3/2d/2|
{gBd}B2{e}G3/2{d}B/2{g}e3/2f/2g3/2d/2|  !
{gBd}B2{e}G3/2{d}B/2{g}A3/2{d}A/2{e}A3/2d/2|
{g}B3/2c/2{g}d3/2B/2{gef}e2{A}e:| [|
f/2|  !
{g}e3/2f/2g3/2e/2{g}f2{dG}d3/2f/2|
{g}e3/2f/2g3/2e/2{gfg}f2{g}e3/2d/2|
{g}e3/2f/2g3/2e/2{g}f2{dG}d3/2f/2|  !
{g}e3/2d/2{g}B/2d3/2{gef}e2{A}e3/2f/2|
{g}e3/2f/2g3/2e/2{g}f2{dG}d3/2f/2|
{g}e3/2f/2g3/2e/2{gfg}f2{g}e3/2d/2|  !
{g}e3/2f/2g3/2e/2{g}f3/2g/2a3/2f/2|
{g}e3/2d/2{g}B/2d3/2{gef}e2{A}e|]
